X: 40786
T: Towers Of Mt. Cootha, The
R: reel
M: 4/4
K: Fmajor
c|fdcA cF (3FFF|cdcA GDFD|CDFG AccA|dAcd AGGc|
fdcA cF (3FFF|cdcA GDFD|CDFG AccA|GDFG AF F:|
f|agfe fc (3ccc|cdfd cAGc|AF (3FFF ccAd|fdcd AGGc|
[1 agfe fc (3ccc|cdfd cAGc|AF (3FFF cdcA|GDFG AF F:|
[2 fdcA cF (3FFF|cdcA GDFD|CDFG AccA|GDFG AF F||

